X:273
T:Linda Ray
C:Linda Ray
N:Transcribed by Mike Stangeland From John Baldry
R:bluegrass
L:1/8
Q:1/4=245
M:4/4
K:D
z8 |: "Bm"f2 b2 b2 bb | "A"d'b a2 a2 aa | ab aa fe de | "Bm"d2 B2 B2 de | fb zb b2 bb | 
"A"d'b a2 a2 aa | ab aa fe de |1 [a8f8] :|2 [a6f6] [a2f2] |: "Bm"FD FA Bd ef | 
"A"ab aa f2 aa |1 a"A"b aa fe de | "Bm"d2 B2 B4 :|2 d'"A"a ba fe de | "Bm"d2 B2 B4 | 
"Bm"B,[DB,] z[DB,] [D2B,2] D2 | "A"[EC][EC] z[EC] [E2C2] EE | E2 EE FE DE | "Bm"D2 B,2 B,2 A,2 | 
B,[DB,] z[DB,] [D2B,2] D2 | "A"[EC][EC] z[EC] [E2C2] EE | E2 EE FE DE | "D"(3[DB,][DB,][DB,] (3[DB,][DB,][DB,] (3[DG,][DG,][DG,] (3[DG,][DG,][DG,] | 
"Bm"B,[DB,] z[DB,] [D2B,2] D2 | "A"[EC][EC] z[EC] [E2C2] EE | E2 EE FE DE | "Bm"D2 B,2 B,2 A,2 | 
"A"B,A, B,D EF AB | "D"dB Ad "A"BA FA | "D"BA Bd "A"BA FE | "Bm"D2 B,2 B,4 | 


